X:0769
T:Dunse dings a'.
M:C
L:1/8
Q:1/2=104
I: :: ||
N:bars 4, 8 and 12 are printed with no natural on the higher g's
Z:Jack Campin * www.campin.me.uk * 2009
K:A
 c(ee)f/g/ aecA| c(ee)g     a3  e| c(ee)f/g/ aecA |B=GGB   =g2gB:|
(c/B/)A eA fAeA|(c/B/)A ec (a2a)e|(c/B/)A ec fdec |B=GGB  (=g2g)B|
(c/B/)A ec fded|(c/B/)A ec (a2a)e|(c/B/)A ec ede=c|B(=GG)B =g2gB|]
<end>
<start>
